bundles/org.openhab.ui.habpanel/web/assets/icons/smarthome-set/recycling.svg

<?xml version="1.0" encoding="UTF-8" standalone="no"?>
<svg width="32px" height="32px" viewBox="0 0 32 32" version="1.1" xmlns="http://www.w3.org/2000/svg" xmlns:xlink="http://www.w3.org/1999/xlink" xmlns:sketch="http://www.bohemiancoding.com/sketch/ns">
    <!-- Generator: Sketch 3.3.2 (12043) - http://www.bohemiancoding.com/sketch -->
    <title>recycling</title>
    <desc>Created with Sketch.</desc>
    <defs></defs>
    <g id="flatten" stroke="none" stroke-width="1" fill="none" fill-rule="evenodd" sketch:type="MSPage">
        <g id="z-copy" sketch:type="MSArtboardGroup" transform="translate(-4.000000, -164.000000)" fill="#000000">
            <g id="recycling" sketch:type="MSLayerGroup" transform="translate(4.000000, 164.000000)">
                <path d="M18.2098982,29.0000015 L19.5241528,30.2928932 C19.9211298,30.6834175 19.9211298,31.3165825 19.5241528,31.7071068 C19.1271757,32.0976311 18.4835487,32.0976311 18.0865717,31.7071068 L15.0370017,28.7071068 C14.8385132,28.5118446 14.7392689,28.2559223 14.7392689,28 C14.7392689,27.7440777 14.8385132,27.4881554 15.0370017,27.2928932 L18.0865717,24.2928932 C18.4835487,23.9023689 19.1271757,23.9023689 19.5241528,24.2928932 C19.9211298,24.6834175 19.9211298,25.3165825 19.5241528,25.7071068 L18.2098951,27.0000015 L27.2018072,27 C29.7862466,27 30.6759782,25.4889261 29.3963194,23.2674114 C29.0196463,22.613499 29.0196463,22.613499 27.8896271,20.6517619 C27.3761862,19.7604177 27.3761862,19.7604177 26.933411,18.9917506 C26.6566286,18.5112507 26.8282106,17.9009992 27.3166501,17.6287159 C27.8050895,17.3564326 28.4254243,17.5252255 28.7022067,18.0057255 C29.1449819,18.7743926 29.1449819,18.7743926 29.6584228,19.6657368 C30.788442,21.6274739 30.788442,21.6274739 31.1651151,22.2813862 C33.2113309,25.83366 31.3469663,29 27.2018074,29 L18.2098982,29.0000015 L18.2098982,29.0000015 Z M24.8624311,11.3397942 L25.3610611,9.50913015 C25.5063648,8.97566404 26.0637621,8.65908155 26.6060429,8.80202337 C27.1483236,8.94496518 27.4701371,9.49330213 27.3248334,10.0267682 L26.2086133,14.1248444 C26.1359615,14.3915775 25.9602862,14.6040896 25.7349888,14.7320508 C25.5096915,14.860012 25.234772,14.9034221 24.9636316,14.8319512 L20.7978415,13.733875 C20.2555608,13.5909332 19.9337473,13.0425963 20.079051,12.5091301 C20.2243547,11.975664 20.781752,11.6590816 21.3240327,11.8020234 L23.054693,12.2582146 L18.9856642,5.19429504 C18.5606459,4.45645441 18.5606459,4.45645441 18.1356277,3.71861377 C16.858967,1.50230395 15.1596997,1.50435157 13.8842185,3.71861377 L12.4320265,6.23964954 C11.8874545,7.18503795 11.8874545,7.18503795 11.4336445,7.97286163 C11.1568622,8.45336161 10.5365274,8.62215457 10.0480879,8.34987124 C9.55964847,8.07758792 9.38806649,7.46733647 9.66484884,6.98683648 C10.1186588,6.19901281 10.1186588,6.19901281 10.6632308,5.25362439 C11.7523748,3.36284757 11.7523748,3.36284757 12.1154228,2.73258862 C14.1689905,-0.832448249 17.8483017,-0.836881812 19.9044234,2.73258862 C20.3294416,3.47042926 20.3294416,3.47042926 20.7544599,4.2082699 L24.8624311,11.3397942 L24.8624311,11.3397942 L24.8624311,11.3397942 Z M5.70718785,13.8574192 L3.90694781,14.3319512 C3.36466707,14.474893 2.80726976,14.1583106 2.66196607,13.6248444 C2.51666239,13.0913783 2.83847587,12.5430414 3.38075661,12.4000996 L7.54654669,11.3020234 C7.81768705,11.2305525 8.09260657,11.2739626 8.31790395,11.4019238 C8.54320133,11.5298849 8.71887658,11.7423971 8.79152842,12.0091301 L9.90774851,16.1072064 C10.0530522,16.6406725 9.73123871,17.1890094 9.18895797,17.3319512 C8.64667723,17.474893 8.08927992,17.1583106 7.94397623,16.6248444 L7.4642926,14.8637401 L4.25503007,20.4350873 C2.94982744,22.7009466 2.94982744,22.7009466 2.62352678,23.2674114 C1.34141761,25.4931799 2.23607029,27 4.83327434,27 L9.91078338,27.0000009 C10.4721937,27.0000011 10.9273066,27.4477164 10.9273065,28.0000011 C10.9273064,28.5522859 10.4721933,29.0000011 9.910783,29.0000009 L4.83327414,29 C0.679432214,29 -1.19594208,25.841398 0.854731086,22.2813862 C1.18103174,21.7149214 1.18103174,21.7149214 2.48623437,19.4490622 L5.70718785,13.8574192 L5.70718785,13.8574192 Z" sketch:type="MSShapeGroup"></path>
            </g>
        </g>
    </g>
</svg>

<svg width="32" height="32" xmlns="http://www.w3.org/2000/svg"><path d="m18.21 29 1.314 1.293a.989.989 0 0 1 0 1.414c-.397.39-1.04.39-1.437 0l-3.05-3a.989.989 0 0 1 0-1.414l3.05-3c.397-.39 1.04-.39 1.437 0a.989.989 0 0 1 0 1.414L18.21 27h8.992c2.584 0 3.474-1.511 2.194-3.733l-1.506-2.615-.957-1.66a.991.991 0 0 1 .384-1.363 1.026 1.026 0 0 1 1.385.377l.956 1.66 1.507 2.615c2.046 3.553.182 6.719-3.963 6.719H18.21Zm6.652-17.66.5-1.83c.144-.534.702-.85 1.244-.708a.998.998 0 0 1 .719 1.225l-1.116 4.098a1 1 0 0 1-.474.607c-.225.128-.5.171-.771.1l-4.166-1.098a.998.998 0 0 1-.719-1.225c.145-.533.703-.85 1.245-.707l1.73.456-4.068-7.064-.85-1.475c-1.277-2.217-2.976-2.215-4.252 0l-1.452 2.52-.998 1.734c-.277.48-.897.65-1.386.377a.991.991 0 0 1-.383-1.363l.998-1.733 1.452-2.521c2.054-3.565 5.733-3.57 7.79 0l.85 1.475 4.107 7.132ZM5.707 13.857l-1.8.475a1.018 1.018 0 0 1-1.245-.707.998.998 0 0 1 .719-1.225l4.166-1.098c.27-.071.546-.028.77.1a1 1 0 0 1 .475.607l1.116 4.098a.998.998 0 0 1-.719 1.225 1.018 1.018 0 0 1-1.245-.707l-.48-1.761-3.209 5.571-1.631 2.832C1.34 25.493 2.236 27 4.834 27H9.91c.561 0 1.016.448 1.016 1s-.455 1-1.016 1H4.833C.68 29-1.196 25.841.855 22.281l1.631-2.832 3.221-5.592Z" fill="#000" fill-rule="evenodd"/></svg>
